X: 30876
T: Out On The Ocean
R: jig
M: 6/8
K: Gmajor
|:"G"d2b bag|bd'b aba|"C"ged g2a|"D"bd'b age|
"G"d2b bag|bd'b aba|"C"ged g2a|1 "D"agf "G"gfe:|2 "D"agf "G"gbd'||
|:"Em"e'2e' e'd'b|e'g'e' e'd'b|"Bm7"d'e'd' d'e'f'|"C"g'f'e' d'ba|
"G"g2a b2d'|"C"e'g'e' d'ba|"G"ged g2a|1 "D"agf "G"gbd':|2 "D"agf "G"g3||

